X:0
T:Beastie of Bedlam
M:C|
C:© Paul Gitlitz 2007
K:Gm
"Gm"G,d^cd "Cm"=cdBd |"Bb"ABAG "F"FGAF|"Gm"G,d^cd "Bb"=cdBd |"Amb5/F#"ABA^F "Gm"G4:|!
|:"Dm"DFAc "Gm"BdGB|"D"Ac^FA "Gm"GABG|"Dm"DFAc "Gm"BdGB|1"F"AcBA "Gm"G^FG2:|2"D"ABA^F "Gm"G4|!
|:"Cm/A"F2e2"Gm/Bb"d3c|"Gm"BAGA "Bb"BcdB|"D"^F2d2"Gm/Bb"B3A|"D7"G^F=EF "Gm"G4:|!
|:"Dm"DFAc "Gm"BdGB|"D"Ac^FA "Gm"GABG|"Dm"DFAc "Gm"BdGB|1"F"AcBA "Gm"G^FG2:|2"D"ABA^F "Gm"G4|]
